!!!!SEGMENT: Jac3003-Jay_un_billard--La_Couronne.krn
!!!id: Jac3003
!!!AGN: Chanson
!!!SCT: Bernstein (1984)
!!!voices: 3
!!!COM: Jacotin Frontin?
!!!OTL: J'ay un billard
**kern	**kern	**kern
*part3	*part2	*part1
*staff3	*staff2	*staff1
*I"Bassus	*I"Tenor	*I"Superius
*I'B	*I'T	*I'S
*clefF4	*clefGv2	*clefGv2
*k[]	*k[]	*k[]
*C:	*C:	*C:
*M2/1	*M2/1	*M2/1
*met(C|)	*met(C|)	*met(C|)
=1	=1	=1
1E	0r	0r
2E	.	.
2E	.	.
=2	=2	=2
1E	1B	0r
2r	2B	.
2E	2B	.
=3	=3	=3
2.G	1B	0r
4F	.	.
4E	2r	.
4F	.	.
4G	2B	.
4E	.	.
=4	=4	=4
4F	2.d	0r
4D	.	.
2.G	.	.
.	4c	.
.	2B	.
4F	.	.
4E	[2c	.
4D	.	.
=5	=5	=5
2C	4c]	1r
.	4B	.
2D	1A	.
1E	.	1e
.	2G	.
=6	=6	=6
0AA	1A	2e
.	.	2e
.	2r	1e
.	2A	.
=7	=7	=7
2r	1c	2r
2A	.	2e
2G	2r	2.g
2E	2G	.
.	.	4f
=8	=8	=8
2.A	2.c	2e
.	.	2.f
4G	4B	.
2F	2A	.
.	.	4e
2G	[2B	[2d
=9	=9	=9
1E	4B]	2d]
.	4A	.
.	1G	2c#i
1D	.	[1d
.	2F	.
=10	=10	=10
2r	2.G	2d]
2.GG	.	2B
.	4A	.
.	4B	2.d
4AA	4c	.
4BB	[2d	.
4C	.	4c
=11	=11	=11
2D	2d]	4B
.	.	4A
2AA	1e	2.c
4AA	.	.
4BB	.	4B
4C	4d	[2A
4D	4c	.
=12	=12	=12
4E	4B	2A]
4F	4A	.
4G	2B	2G
4E	.	.
2F	2A	2c
2E	2B	[2G
=13	=13	=13
0r	2.d	4G]
.	.	4A
.	.	4B
.	4c	4c
.	2B	2d
.	[2c	[2A
=14	=14	=14
2.AA	4c]	4A]
.	4B	4B
.	1A	4c
4BB	.	4d
4C	.	4e
4D	.	4f
2E	2G	4g
.	.	4e
=15	=15	=15
2D	2.A	2f
2AA	.	1e
.	8GL	.
.	8AJ	.
2C	2G	.
2D	2F	[2d
=16	=16	=16
1AA	1E	2d]
.	.	2c#i
[1D	2r	1d
.	2D	.
=17	=17	=17
1D]	4F	2r
.	4E	.
.	4F	2A
.	4G	.
2r	1A	4c
.	.	4B
2AA	.	4c
.	.	4d
=18	=18	=18
4C	2r	1e
4BB	.	.
4C	2E	.
4D	.	.
[1E	4G	1r
.	4F	.
.	4G	.
.	4A	.
=19	=19	=19
2E]	2B	1e
2AA	1c	.
4C	.	2e
4BB	.	.
4C	4B	2e
4D	4A	.
=20	=20	=20
2E	2G	2e
2AA	2A	2e
1D	4A	[1f
.	4G	.
.	4F	.
.	4E	.
=21	=21	=21
2r	2D	2f]
2AA	2E	2e
1D	2F	2e
.	2F	2d
=22	=22	=22
2r	2E	2e
2E	2B	2e
[1A	[1c	[1f
=23	=23	=23
2A]	2c]	2f]
2G	2B	2e
2F	2B	2e
2F	2A	2d
=24	=24	=24
2.E	2B	2e
.	2c	2.g
8DL	.	.
8CJ	.	.
1G	4B	.
.	4A	4f
.	2B	4d
.	.	4e
=25	=25	=25
1r	2.A	2f
.	.	2.e
.	4G	.
2r	4E	.
.	4F	4d
2E	4G	4B
.	4F	4c
=26	=26	=26
1.F	4D	4d
.	4E	4c
.	4F	4A
.	4G	4B
.	4A	4c
.	4B	4d
2E	4c	4e
.	4d	4f
=27	=27	=27
2E	4e	4g
.	4c	4e
2D	2d	1a
1E	1B	.
.	.	2g#i
=28	=28	=28
1AA	2A	2a
.	1c	2e
2r	.	2e
2E	4B	2e
.	4A	.
=29	=29	=29
2E	2G	1.e
2E	2B	.
[1E	2B	.
.	2B	2e
=30	=30	=30
2E]	1B	1g
2E	.	.
1G	2r	1r
.	2B	.
=31	=31	=31
2r	2d	0r
2E	2c	.
2G	2B	.
2F	2c	.
=32	=32	=32
2E	4c	0r
.	4B	.
2.F	4A	.
.	4G	.
.	2A	.
4E	.	.
4D	[2B	.
4C	.	.
=33	=33	=33
4D	2B]	0r
4C	.	.
4BB	1A	.
4AA	.	.
1BB	.	.
.	2G#i	.
=34	=34	=34
2AA	2A	1e
2A	2c	.
2G	2B	2e
[2A	[2c	2e
=35	=35	=35
2A]	2c]	1e
4G	4B	.
4F	4A	.
2E	4G	2r
.	4F	.
[2G	4E	2e
.	4D	.
=36	=36	=36
4G]	2C	2.g
4F	.	.
4E	2G	.
4D	.	4f
4C	2.A	2e
4AA	.	.
[2D	.	[2f
.	4G	.
=37	=37	=37
2D]	2F	4f]
.	.	4e
2GG	2G	1d
1AA	1E	.
.	.	2c#i
=38	=38	=38
1D	2r	2d
.	2A	1f
2r	2A	.
2AA	2A	4e
.	.	4d
=39	=39	=39
2AA	1.A	2e
2AA	.	2e
1AA	.	2e
.	2A	2e
=40	=40	=40
2r	1c	1e
2A	.	.
2.c	2r	2A
.	2A	[2c
4B	.	.
=41	=41	=41
4A	2.c	4c]
4G	.	4B
1F	.	4A
.	4B	4B
.	2A	4c
.	.	4d
2E	[2B	2e
=42	=42	=42
2G	4B]	4d
.	4A	4c
2A	1A	4B
.	.	4A
1E	.	2B
.	2G	[2e
=43	=43	=43
2AA	2A	4e]
.	.	4d
2.D	2A	2.f
.	4F	.
4E	4G	4e
4F	4A	2d
4D	4F	.
=44	=44	=44
4E	2G	2c
4C	.	.
2.F	4D	2d
.	4E	.
.	4F	2A
4E	4G	.
2D	4A	2f
.	4F	.
=45	=45	=45
2C	4G	2e
.	4F	.
2D	4E	1d
.	4D	.
1AA	1E	.
.	.	2c#i
=46	=46	=46
00Dl	00Dl	00dl
==	==	==
*-	*-	*-
!!!system-decoration: [*]
!!!RDF**kern: i = editorial accidental
!!!RDF**kern: l = terminal long
!!!ENC: Benjamin Ory
!!!END: 2023/11/7
!!!EED: Benjamin Ory
!!!EEV: 2023/11/07
!!!YEC: Copyright 2023 Benjamin Ory, All Rights Reserved
!!!ONB: Translated from MusicXML on 2023/11/07
